X:1
T:Sixth Apostle， Delezie The Plague
T:Sixth Apostle, Delezie The Plague.
T:The One Who Spills Dirty Blood.
%%score [ 1 2 ]
L:1/8
Q:1/4=55
M:4/4
K:Bb
V:1 treble nm="Piano"
V:2 bass nm="Piano"
V:1
!mf!"_dim." g2 d'2 d'2 d'2 | d'c'ba g2 ^f2 | g2 d'2 d'2 d'2 | d'2 c'2 [Ab]2 a2- | a8 | %5
!mf! [Bdgb]2 [Ada][B,G] [DGd]4 | [dd'][cc'][Bb][Aa] [Gg]2 [Ff]2 | [Bdgb]2 [Ada][B,DG] [DGd]2 G,B, | %8
 [dfad']2!f! [Ada]2 [Gg][Ff][Dd][Aa] |!mf! [EGce][EG]/F/ [Geg]2 [Aga]E/F/ [Gceg]/F/G/F/ | %10
 [DGd][DG]/^F/ [Gg]2 [Adga][B,DGB]/F/ [DGdg]/=F/[G,DG]/F/ | %11
 [CGc][CG]/[DF]/ [Gg]C/D/ [EGB]/F/[EG] [Aga]C |"_cresc." [dd']2 [dd']2 [dd'][dd'][dd'][dd'] | %13
!mf! [DG][Bb]/[Aa]/ [DGg][DG] [GAd]2 [Gd][Ff]/[Gg]/ | [dgd'][Gc]Gc [DGBd]2 [D^FAc]2 | %15
 [DG][Bb]/[Aa]/ [DGg][DG] [DFGAd][DFG] [Dd][B,F]/[DG]/ |!f! [GBdg]c[G,CG]c [GBeg]2 [^FAd^f]2 | %17
!mf! [Gce]E/F/ [Gg]G [GBdg]2 [GBg]/a/[GBg]/f/ | %18
 [GAcg][Fcf]/f/ [EGe][DGd]!f! [d^fbd']2 [cfac'][CA] | %19
!mf! [Gdg][Bb]/[Aa]/ [GBg][DFA] [CEG][Bb]/[Aa]/ [GBg][FA] | %20
 [Geg][Bb]/[Aa]/ [Gcg]G [Gcdg]2 [^FAd^f]2 |"_dim." [Gd]b/a/ b2!mp! [Adfa]2 [EGeg]E | %22
 [DGBd][DG][Ad]A, DA, [DB]2 |"_dim." [G,DG]G/A/ B2!mp! [A,DEA]2 [G,DG]2 | %24
 [G,CDG]2 [G,A,]2 [CDEGA]2 [G,B,DEG]2 | [CG]"_cresc."f'/c'/ d'a [DFAd]d'd'd' | d'8 |] %27
V:2
!mp!"_dim." G, D3 F, D3 | F, C3 [D,C]4 | [G,,E,]B, D2 C,G, D2 | %3
 [G,,D,]G,A,C !arpeggio![D,F,A,D]4- | [D,F,A,D]8 |!mp! [G,,,G,,][G,,,G,,]G,G,, [G,,,G,,]D,G,B, | %6
 [F,,,F,,] [F,,,F,,]2 F,, [F,,,F,,]D,G,B, | [E,,,E,,][E,,,E,,]G,E,, [E,,,E,,] F,2 E,, | %8
 [D,,,D,,]2 [D,C]>D, [A,C][D,F,A,]/D,,/ [A,,D,]/D,,/[A,,D,]/D,,/ | %9
 [C,,C,][C,G,C]/D/ [G,E][C,G,C]/[B,,F,B,]/ [C,G,C]/[B,,F,B,]/[C,G,C] [CE][G,E]/G,,/ | %10
 [B,,,B,,][B,,B,] [G,D]B,,/A,,/ B,,/A,,/ B,,2 [B,,,B,,] | %11
 [A,,,A,,][A,,,A,,A,] [CE]A,,/G,,/ [A,,,A,,] [A,,,A,,]2 A,, | %12
"_cresc." [D,A,D]2 [D,A,D]2 [D,A,D][D,A,D][D,A,D][D,A,D] | %13
!mp! [G,,,G,,][G,,D,]/G,/ B,/D,/G,/B,/ [F,,,F,,][F,,,F,,] F,,/F,,,/F,,/F,,,/ | %14
 [E,,,E,,]E,, [B,,E,G,]>B,, [E,,,E,,]2 [D,,,D,,]A,,/D,,/ | %15
 [G,,,G,,][G,,D,]/G,/ B,/D,/G,/B,/ [F,,,F,,][F,,,F,,] [F,A,]<D, | %16
 [E,,,E,,]E,,- E,,/G,,/B,,/E,/ [E,,B,,E,]2 [D,,A,,D,]2 | %17
 [C,,C,][C,G,C]/D/ E[C,G,C]/[G,,D,]/ [B,,,B,,][G,B,D]/C/ [G,D]/A,/G,/F,/ | %18
 [A,,,A,,][A,C]E,[A,,A,] [D,,,D,,]D,,/A,,,/ [D,,,D,,]/D,,/A,,/D,,/ | %19
 [E,,E,]/E,/E/D/ [G,B,E][D,,D,] [C,,C,]/G,/C/G,/ [CE]>[C,,C,] | %20
 [A,,,A,,]A,,/G,/ [G,A,C]D,/A,,/ [D,,D,]A,,/D,,/ [D,,D,]2 | %21
 [G,,,G,,]G,, [D,G,B,]D,,/G,,/ [F,,,F,,]/G,,/A,, [E,G,]B, | %22
!p! [G,,,G,,][G,,,G,,] [D,G,B,]>G,, [F,,,F,,]/G,,/A,, [D,F,G,]F, | %23
 [F,,,E,,] E,,2 [D,,D,] C,2 B,,2 | [D,,A,,]D,,D,D,, [E,,E,]3 E,, | %25
 [C,,C,][G,CDF] [G,CF]2 [D,,D,]4 | !arpeggio![D,,G,,B,,C,D,]8 |] %27

